assets/image-bot.svg

<?xml version="1.0"?>
<svg width="400" height="400" xmlns="http://www.w3.org/2000/svg" xmlns:svg="http://www.w3.org/2000/svg" xmlns:xlink="http://www.w3.org/1999/xlink">
 <!-- Created with SVG-edit - https://github.com/SVG-Edit/svgedit-->
 <defs>
  <symbol height="278.86" id="svg_20" version="1.1" viewBox="0 0 138.30096109824444 139.43001089805875" width="276.6" xmlns="http://www.w3.org/2000/svg">
   <!-- svg-source:excalidraw -->
   <defs>
    <style class="style-fonts">@font-face {
        font-family: &quot;Virgil&quot;;
        src: url(&quot;https://excalidraw.com/Virgil.woff2&quot;);
      }
      @font-face {
        font-family: &quot;Cascadia&quot;;
        src: url(&quot;https://excalidraw.com/Cascadia.woff2&quot;);
      }</style>
   </defs>
   <g stroke-linecap="round" transform="translate(10 10) rotate(0 59.15048054912222 59.71500544902938)">
    <path d="m0,0l118.3,0l0,119.43l-118.3,0" fill="#000" stroke-width="0"/>
    <path d="m0,0c39.11,0 78.21,0 118.3,0m-118.3,0c44.2,0 88.39,0 118.3,0m0,0c0,39.83 0,79.67 0,119.43m0,-119.43c0,37.05 0,74.1 0,119.43m0,0c-46.81,0 -93.63,0 -118.3,0m118.3,0c-40.2,0 -80.4,0 -118.3,0m0,0c0,-27.69 0,-55.37 0,-119.43m0,119.43c0,-36.83 0,-73.65 0,-119.43" fill="none" stroke="#000000" stroke-width="4"/>
   </g>
   <g stroke-linecap="round">
    <g fill-rule="evenodd" transform="translate(31.44077612867477 100.8543090176554) rotate(0 37.85014842621058 -24.622386291573093)">
     <path d="m0.45,-1.68l76.79,3.82l-16.67,-24.63l-19.05,8.59l-26.48,-36.84l-19.5,48.97" fill="#ffffff" fill-rule="evenodd" stroke-width="0"/>
     <path d="m0.06,0.61c27.61,-2.3 55.26,-1.24 78.18,1.14m-79.15,-0.89c23.73,-0.65 44.29,-0.41 79.36,0.58m-0.54,-0.1c-5.51,-9.48 -11.82,-19.57 -16.47,-24.78m17.02,24.45c-5.82,-10.47 -13.36,-19.97 -16.65,-25.34m-2.36,1.82c-3.22,0.48 -6.94,2.13 -20.34,8.73m21.52,-10.6c-6.85,5.83 -14.97,9.76 -21.14,12.84m0.81,-2.55c-9.54,-10.06 -15.93,-19.57 -27.27,-34.76m26.15,37.61c-4.8,-10.58 -12.38,-17.71 -25.45,-39.76m-1.32,1.09c-1.98,11.09 -4.87,18.95 -13.23,48.32m14.96,-49.16c-5.79,15.39 -10.03,28.43 -16.9,47.29m0.37,0.28c0.1,1.32 1.2,1.53 2.6,2.91m-2.75,-2.8c0.72,0.9 1.47,1.71 2.35,3.13" fill="none" stroke="#fff" stroke-width="4"/>
    </g>
   </g>
   <mask/>
   <g stroke-linecap="round" transform="translate(78.06046604969379 35.12342237712983) rotate(0 9.700366764036517 8.107770719399014)">
    <path d="m10.75,-0.1c2.01,-0.1 4.44,0.29 5.79,1.44c1.36,1.14 2.3,3.54 2.35,5.44c0.05,1.9 -0.91,4.39 -2.05,5.95c-1.14,1.55 -2.98,2.76 -4.78,3.36c-1.8,0.61 -4.25,0.91 -6.02,0.26c-1.78,-0.66 -3.63,-2.52 -4.62,-4.17c-0.99,-1.65 -1.88,-3.92 -1.33,-5.76c0.55,-1.84 2.58,-4.17 4.6,-5.27c2.02,-1.1 5.94,-1.39 7.54,-1.34c1.6,0.05 2,1.35 2.06,1.64m-7.81,-2.57c2.03,-0.4 5.16,1.45 7.42,2.52c2.26,1.06 5.12,2.44 6.14,3.87c1.02,1.44 0.7,2.97 -0.02,4.74c-0.73,1.77 -2.6,4.97 -4.31,5.88c-1.71,0.91 -3.85,0 -5.95,-0.43c-2.1,-0.43 -4.95,-0.84 -6.66,-2.15c-1.71,-1.31 -3.54,-3.87 -3.6,-5.71c-0.05,-1.84 2,-3.93 3.27,-5.31c1.27,-1.39 3.55,-2.7 4.35,-2.99c0.8,-0.29 0.31,1.2 0.45,1.25" fill="#ffffff" stroke-width="0"/>
    <path d="m13.41,1.13c1.84,0.72 4.11,2.11 4.94,3.84c0.82,1.72 0.57,4.74 0,6.52c-0.56,1.77 -1.9,3.32 -3.39,4.11c-1.49,0.78 -3.61,0.85 -5.58,0.6c-1.96,-0.24 -4.53,-0.76 -6.23,-2.07c-1.69,-1.3 -3.77,-3.81 -3.92,-5.74c-0.15,-1.93 1.47,-4.38 3.01,-5.84c1.54,-1.45 4.22,-2.84 6.23,-2.91c2,-0.08 4.58,2.3 5.8,2.46c1.22,0.16 1.53,-1.48 1.52,-1.5m-10.87,0.13c1.76,-1.25 5,-2.51 7.02,-1.9c2.02,0.61 4.13,4.18 5.13,5.54c0.99,1.35 0.88,1.1 0.84,2.57c-0.03,1.47 -0.15,4.54 -1.06,6.25c-0.91,1.71 -2.15,3.8 -4.41,4.02c-2.26,0.22 -7.38,-1.64 -9.15,-2.71c-1.77,-1.06 -1.13,-2.05 -1.48,-3.67c-0.36,-1.63 -1.08,-4.44 -0.67,-6.07c0.42,-1.64 2.67,-3.28 3.18,-3.74c0.51,-0.47 -0.24,0.63 -0.11,0.96" fill="none" stroke="#fff" stroke-width="4"/>
   </g>
  </symbol>
 </defs>
 <g class="layer">
  <title>Layer 1</title>
  <use id="svg_21" transform="matrix(1.64335 0 0 1.64335 -2.24565 -1.52715)" x="-15.69" xlink:href="#svg_20" y="-16.73"/>
 </g>
</svg>

<svg version="1.1" xmlns="http://www.w3.org/2000/svg" viewBox="0 0 138.30096109824444 139.43001089805875" width="276.6019221964889" height="278.8600217961175">
  <!-- svg-source:excalidraw -->
  
  <defs>
    <style class="style-fonts">
      @font-face {
        font-family: "Virgil";
        src: url("https://excalidraw.com/Virgil.woff2");
      }
      @font-face {
        font-family: "Cascadia";
        src: url("https://excalidraw.com/Cascadia.woff2");
      }
    </style>
    
  </defs>
  <g stroke-linecap="round" transform="translate(10 10) rotate(0 59.15048054912222 59.71500544902938)"><path d="M0 0 L118.3 0 L118.3 119.43 L0 119.43" stroke="none" stroke-width="0" fill="#000"></path><path d="M0 0 C39.11 0, 78.21 0, 118.3 0 M0 0 C44.2 0, 88.39 0, 118.3 0 M118.3 0 C118.3 39.83, 118.3 79.67, 118.3 119.43 M118.3 0 C118.3 37.05, 118.3 74.1, 118.3 119.43 M118.3 119.43 C71.49 119.43, 24.67 119.43, 0 119.43 M118.3 119.43 C78.1 119.43, 37.9 119.43, 0 119.43 M0 119.43 C0 91.74, 0 64.06, 0 0 M0 119.43 C0 82.6, 0 45.78, 0 0" stroke="#000000" stroke-width="4" fill="none"></path></g><g stroke-linecap="round"><g transform="translate(31.44077612867477 100.8543090176554) rotate(0 37.85014842621058 -24.622386291573093)" fill-rule="evenodd"><path d="M0.45 -1.68 L77.24 2.14 L60.57 -22.49 L41.52 -13.9 L15.04 -50.74 L-4.46 -1.77" stroke="none" stroke-width="0" fill="#ffffff" fill-rule="evenodd"></path><path d="M0.06 0.61 C27.67 -1.69, 55.32 -0.63, 78.24 1.75 M-0.91 0.86 C22.82 0.21, 43.38 0.45, 78.45 1.44 M77.91 1.34 C72.4 -8.14, 66.09 -18.23, 61.44 -23.44 M78.46 1.01 C72.64 -9.46, 65.1 -18.96, 61.81 -24.33 M59.45 -22.51 C56.23 -22.03, 52.51 -20.38, 39.11 -13.78 M60.63 -24.38 C53.78 -18.55, 45.66 -14.62, 39.49 -11.54 M40.3 -14.09 C30.76 -24.15, 24.37 -33.66, 13.03 -48.85 M39.18 -11.24 C34.38 -21.82, 26.8 -28.95, 13.73 -51 M12.41 -49.91 C10.43 -38.82, 7.54 -30.96, -0.82 -1.59 M14.14 -50.75 C8.35 -35.36, 4.11 -22.32, -2.76 -3.46 M-2.39 -3.18 C-2.29 -1.86, -1.19 -1.65, 0.21 -0.27 M-2.54 -3.07 C-1.82 -2.17, -1.07 -1.36, -0.19 0.06" stroke="#fff" stroke-width="4" fill="none"></path></g></g><mask></mask><g stroke-linecap="round" transform="translate(78.06046604969379 35.12342237712983) rotate(0 9.700366764036517 8.107770719399014)"><path d="M10.75 -0.1 C12.76 -0.2, 15.19 0.19, 16.54 1.34 C17.9 2.48, 18.84 4.88, 18.89 6.78 C18.94 8.68, 17.98 11.17, 16.84 12.73 C15.7 14.28, 13.86 15.49, 12.06 16.09 C10.26 16.7, 7.81 17, 6.04 16.35 C4.26 15.69, 2.41 13.83, 1.42 12.18 C0.43 10.53, -0.46 8.26, 0.09 6.42 C0.64 4.58, 2.67 2.25, 4.69 1.15 C6.71 0.05, 10.63 -0.24, 12.23 -0.19 C13.83 -0.14, 14.23 1.16, 14.29 1.45 M6.48 -1.12 C8.51 -1.52, 11.64 0.33, 13.9 1.4 C16.16 2.46, 19.02 3.84, 20.04 5.27 C21.06 6.71, 20.74 8.24, 20.02 10.01 C19.29 11.78, 17.42 14.98, 15.71 15.89 C14 16.8, 11.86 15.89, 9.76 15.46 C7.66 15.03, 4.81 14.62, 3.1 13.31 C1.39 12, -0.44 9.44, -0.5 7.6 C-0.55 5.76, 1.5 3.67, 2.77 2.29 C4.04 0.9, 6.32 -0.41, 7.12 -0.7 C7.92 -0.99, 7.43 0.5, 7.57 0.55" stroke="none" stroke-width="0" fill="#ffffff"></path><path d="M13.41 1.13 C15.25 1.85, 17.52 3.24, 18.35 4.97 C19.17 6.69, 18.92 9.71, 18.35 11.49 C17.79 13.26, 16.45 14.81, 14.96 15.6 C13.47 16.38, 11.35 16.45, 9.38 16.2 C7.42 15.96, 4.85 15.44, 3.15 14.13 C1.46 12.83, -0.62 10.32, -0.77 8.39 C-0.92 6.46, 0.7 4.01, 2.24 2.55 C3.78 1.1, 6.46 -0.29, 8.47 -0.36 C10.47 -0.44, 13.05 1.94, 14.27 2.1 C15.49 2.26, 15.8 0.62, 15.79 0.6 M4.92 0.73 C6.68 -0.52, 9.92 -1.78, 11.94 -1.17 C13.96 -0.56, 16.07 3.01, 17.07 4.37 C18.06 5.72, 17.95 5.47, 17.91 6.94 C17.88 8.41, 17.76 11.48, 16.85 13.19 C15.94 14.9, 14.7 16.99, 12.44 17.21 C10.18 17.43, 5.06 15.57, 3.29 14.5 C1.52 13.44, 2.16 12.45, 1.81 10.83 C1.45 9.2, 0.73 6.39, 1.14 4.76 C1.56 3.12, 3.81 1.48, 4.32 1.02 C4.83 0.55, 4.08 1.65, 4.21 1.98" stroke="#fff" stroke-width="4" fill="none"></path></g></svg>
